X:1
T:Wha's Fu'?
M:2/4
L:1/8
K:Bb
 G/2| D3/2 G/2 G3/2 A/2| BA B3/2 G/2| F2 F2| F2 F3/2 G/2| D3/2 G/2 G3/2 A/2|\
 B3/2 A/2 Bc| d2 d3/2- c/2| d3 d| d3/2 c/2 B3/2 c/2| d3/2 e/2 fd| c3/2 B/2 AG|\
 A/2B/2 c/2A/2 B3/2 c/2| d2 c3/2- B/2| B3/2 G/2 dD| D/2- G3/2 BA| G3- G/2||\


